Papirus/64x64/apps/com.github.linuxhubit.gitscover.svg

<?xml version="1.0" encoding="UTF-8" standalone="no"?>
<svg
   id="_图层_1"
   version="1.1"
   viewBox="0 0 64 64" width="64" height="64"
   sodipodi:docname="com.github.linuxhubit.gitscover.svg"
   xml:space="preserve"
   inkscape:version="1.4 (e7c3feb100, 2024-10-09)"
   xmlns:inkscape="http://www.inkscape.org/namespaces/inkscape"
   xmlns:sodipodi="http://sodipodi.sourceforge.net/DTD/sodipodi-0.dtd"
   xmlns="http://www.w3.org/2000/svg"
   xmlns:svg="http://www.w3.org/2000/svg"><sodipodi:namedview
     id="namedview26"
     pagecolor="#505050"
     bordercolor="#eeeeee"
     borderopacity="1"
     inkscape:showpageshadow="0"
     inkscape:pageopacity="0"
     inkscape:pagecheckerboard="0"
     inkscape:deskcolor="#505050"
     inkscape:zoom="10.6875"
     inkscape:cx="32"
     inkscape:cy="26.760234"
     inkscape:window-width="1920"
     inkscape:window-height="939"
     inkscape:window-x="0"
     inkscape:window-y="34"
     inkscape:window-maximized="1"
     inkscape:current-layer="_图层_1" /><!-- Generator: Adobe Illustrator 29.0.1, SVG Export Plug-In . SVG Version: 2.1.0 Build 192)  --><defs
     id="defs6"><style
       id="style1">
      .st0 {
        fill-opacity: .5;
      }

      .st0, .st1, .st2, .st3, .st4, .st5, .st6, .st7 {
        fill: #fff;
      }

      .st8 {
        fill: #133c9a;
      }

      .st2, .st9 {
        display: none;
      }

      .st3 {
        fill-opacity: .2;
      }

      .st4 {
        fill-opacity: .9;
      }

      .st10 {
        fill: #3370ff;
      }

      .st11 {
        fill: url(#_未命名的渐变_3);
      }

      .st12 {
        fill: url(#_未命名的渐变);
      }

      .st5 {
        fill-opacity: .3;
      }

      .st6 {
        fill-opacity: 0;
      }

      .st7 {
        fill-opacity: .7;
      }

      .st13 {
        fill: #00d6b9;
      }

      .st14 {
        fill: url(#_未命名的渐变_2);
      }
    </style><radialGradient
       id="_未命名的渐变"
       data-name="未命名的渐变"
       cx="123.9"
       cy="-40.2"
       fx="123.9"
       fy="-40.2"
       r="59.4"
       gradientTransform="translate(-26.8 25.5) scale(.6 -.7)"
       gradientUnits="userSpaceOnUse"><stop
         offset="0"
         stop-color="#db202e"
         id="stop1" /><stop
         offset="1"
         stop-color="#e01b24"
         id="stop2" /></radialGradient><radialGradient
       id="_未命名的渐变_2"
       data-name="未命名的渐变 2"
       cx="67.6"
       cy="26.8"
       fx="67.6"
       fy="26.8"
       r="105.2"
       gradientTransform="translate(-26.6 25.3) scale(.6 -.7)"
       gradientUnits="userSpaceOnUse"><stop
         offset="0"
         stop-color="#ffb648"
         id="stop3" /><stop
         offset="1"
         stop-color="#ff7800"
         stop-opacity="0"
         id="stop4" /></radialGradient><radialGradient
       id="_未命名的渐变_3"
       data-name="未命名的渐变 3"
       cx="61.7"
       cy="18.6"
       fx="61.7"
       fy="18.6"
       r="68"
       gradientTransform="matrix(0.6,0,0,-0.7,-26.8,25.8)"
       gradientUnits="userSpaceOnUse"><stop
         offset="0"
         stop-color="#c64600"
         id="stop5" /><stop
         offset="1"
         stop-color="#a51d2d"
         id="stop6" /></radialGradient></defs><path
     class="st1"
     d="M 47.5,64.1 H 13.8 C 6.2,64.1 0,57.8 0,50.3 V 13.7 C 0,6.2 6.2,0 13.7,0 H 50.3 C 57.8,0 64,6.2 64,13.7 V 50.3 C 64,57.8 57.8,64 50.3,64 h -2.9 0.1 z"
     id="path6"
     style="fill:#f9f9f9;fill-opacity:1"
     sodipodi:nodetypes="cssssssssccc" /><g
     id="g49"
     transform="matrix(0.83413078,0,0,0.86703601,7.6469964,4.0143121)"><path
       style="opacity:0.2"
       d="m 18,24.601562 v 16.625 A 10,10 0 0 0 10,51 10,10 0 0 0 20,61 10,10 0 0 0 30,51 10,10 0 0 0 22,41.203124 v -0.20703 c 3.12395,0.0034 7.540622,0 9.855468,0 3.564944,0 6.337758,-1.978168 7.933594,-4.515626 1.595836,-2.537458 2.307026,-5.589928 2.691406,-8.511718 l -3.960936,-0.546874 c -0.341206,2.593616 -1.02705,5.140536 -2.085938,6.824218 -1.058888,1.683682 -2.398582,2.75 -4.578126,2.75 -2.323586,0 -6.74249,0.0034 -9.855468,0 V 24.601562 Z M 20,45 a 5.9999998,5.9999998 0 0 1 6,6 5.9999998,5.9999998 0 0 1 -6,6 5.9999998,5.9999998 0 0 1 -6,-6 5.9999998,5.9999998 0 0 1 6,-6 z"
       id="path1" /><path
       style="fill:#ffb036"
       d="M 20,40 A 10,10 0 0 0 10,50 10,10 0 0 0 20,60 10,10 0 0 0 30,50 10,10 0 0 0 20,40 Z m 0,4 a 5.9999998,5.9999998 0 0 1 6,6 5.9999998,5.9999998 0 0 1 -6,6 5.9999998,5.9999998 0 0 1 -6,-6 5.9999998,5.9999998 0 0 1 6,-6 z"
       id="path2" /><path
       style="fill:#ffb036"
       d="m 18,23.6 v 19.6 h 4 v -3.203282 c 3.12395,0.0034 7.540232,0 9.855078,0 3.564944,0 6.336586,-1.976994 7.932422,-4.514452 1.595836,-2.537458 2.30898,-5.59032 2.69336,-8.51211 L 38.52,26.423282 c -0.341206,2.593616 -1.029112,5.138582 -2.088,6.822264 -1.058888,1.683682 -2.397378,2.750454 -4.576922,2.750454 -2.323586,0 -6.7421,0.0034 -9.855078,0 V 23.6 Z"
       id="path3-4" /><path
       style="opacity:0.2;fill:#ffffff"
       d="m 18,23.599609 v 1 h 4 v -1 z m 20.519531,2.824219 c -0.341206,2.593616 -1.029002,5.138584 -2.08789,6.822266 -1.058888,1.683682 -2.396628,2.75 -4.576172,2.75 -2.323586,0 -6.742491,0.0034 -9.855469,0 v 1 c 3.112978,0.0034 7.531883,0 9.855469,0 2.179544,0 3.517284,-1.066318 4.576172,-2.75 1.058888,-1.683682 1.746684,-4.22865 2.08789,-6.822266 l 3.81836,0.527344 c 0.05177,-0.327995 0.09974,-0.654827 0.142578,-0.980469 z M 18,40.226562 A 10,10 0 0 0 10,50 10,10 0 0 0 10.048828,50.505859 10,10 0 0 1 18,41.226562 Z m 4,0.769532 v 0.207031 A 10,10 0 0 1 29.951172,50.501953 10,10 0 0 0 30,50 10,10 0 0 0 24.269531,40.996094 c -0.815039,-1.87e-4 -1.550143,7.83e-4 -2.269531,0 z M 14.056641,50.5 A 5.9999998,5.9999998 0 0 0 14,51 5.9999998,5.9999998 0 0 0 20,57 5.9999998,5.9999998 0 0 0 26,51 5.9999998,5.9999998 0 0 0 25.980469,50.503906 5.9999998,5.9999998 0 0 1 20,56 5.9999998,5.9999998 0 0 1 14.056641,50.5 Z"
       id="path4-3" /><circle
       style="opacity:0.2"
       cx="41"
       cy="18"
       r="13"
       id="circle4" /><circle
       style="opacity:0.2"
       cx="21"
       cy="18"
       r="11"
       id="circle5" /><circle
       style="fill:#dfdfdf"
       cx="41"
       cy="17"
       r="13"
       id="circle6" /><circle
       style="fill:#dfdfdf"
       cx="21"
       cy="17"
       r="11"
       id="circle7" /><circle
       style="opacity:0.1"
       cx="21"
       cy="18"
       r="7"
       id="circle8" /><circle
       style="fill:#386ec1"
       cx="21"
       cy="17"
       r="7"
       id="circle9" /><circle
       style="opacity:0.1"
       cx="41"
       cy="18"
       r="9"
       id="circle10" /><circle
       style="fill:#386ec1"
       cx="41"
       cy="17"
       r="9"
       id="circle11" /><path
       style="opacity:0.2;fill:#ffffff"
       d="M 41,4 A 13,13 0 0 0 29.816406,10.425781 11,11 0 0 0 21,6 11,11 0 0 0 10,17 11,11 0 0 0 10.044922,17.494141 11,11 0 0 1 21,7 11,11 0 0 1 29.816406,11.425781 13,13 0 0 1 41,5 13,13 0 0 1 53.978516,17.246094 13,13 0 0 0 54,17 13,13 0 0 0 41,4 Z"
       id="path11" /></g></svg>

<svg xmlns="http://www.w3.org/2000/svg" width="64" height="64" version="1.1">
 <path style="opacity:0.2" d="m 18,24.601562 v 16.625 A 10,10 0 0 0 10,51 10,10 0 0 0 20,61 10,10 0 0 0 30,51 10,10 0 0 0 22,41.203124 v -0.20703 c 3.12395,0.0034 7.540622,0 9.855468,0 3.564944,0 6.337758,-1.978168 7.933594,-4.515626 1.595836,-2.537458 2.307026,-5.589928 2.691406,-8.511718 l -3.960936,-0.546874 c -0.341206,2.593616 -1.02705,5.140536 -2.085938,6.824218 -1.058888,1.683682 -2.398582,2.75 -4.578126,2.75 -2.323586,0 -6.74249,0.0034 -9.855468,0 V 24.601562 Z M 20,45 a 5.9999998,5.9999998 0 0 1 6,6 5.9999998,5.9999998 0 0 1 -6,6 5.9999998,5.9999998 0 0 1 -6,-6 5.9999998,5.9999998 0 0 1 6,-6 z"/>
 <path style="fill:#ffb036" d="M 20,40 A 10,10 0 0 0 10,50 10,10 0 0 0 20,60 10,10 0 0 0 30,50 10,10 0 0 0 20,40 Z m 0,4 a 5.9999998,5.9999998 0 0 1 6,6 5.9999998,5.9999998 0 0 1 -6,6 5.9999998,5.9999998 0 0 1 -6,-6 5.9999998,5.9999998 0 0 1 6,-6 z"/>
 <path style="fill:#ffb036" d="m 18,23.6 v 19.6 h 4 v -3.203282 c 3.12395,0.0034 7.540232,0 9.855078,0 3.564944,0 6.336586,-1.976994 7.932422,-4.514452 1.595836,-2.537458 2.30898,-5.59032 2.69336,-8.51211 L 38.52,26.423282 c -0.341206,2.593616 -1.029112,5.138582 -2.088,6.822264 -1.058888,1.683682 -2.397378,2.750454 -4.576922,2.750454 -2.323586,0 -6.7421,0.0034 -9.855078,0 V 23.6 Z"/>
 <path style="fill:#ffffff;opacity:0.2" d="M 18 23.599609 L 18 24.599609 L 22 24.599609 L 22 23.599609 L 18 23.599609 z M 38.519531 26.423828 C 38.178325 29.017444 37.490529 31.562412 36.431641 33.246094 C 35.372753 34.929776 34.035013 35.996094 31.855469 35.996094 C 29.531883 35.996094 25.112978 35.999494 22 35.996094 L 22 36.996094 C 25.112978 36.999494 29.531883 36.996094 31.855469 36.996094 C 34.035013 36.996094 35.372753 35.929776 36.431641 34.246094 C 37.490529 32.562412 38.178325 30.017444 38.519531 27.423828 L 42.337891 27.951172 C 42.389665 27.623177 42.437629 27.296345 42.480469 26.970703 L 38.519531 26.423828 z M 18 40.226562 A 10 10 0 0 0 10 50 A 10 10 0 0 0 10.048828 50.505859 A 10 10 0 0 1 18 41.226562 L 18 40.226562 z M 22 40.996094 L 22 41.203125 A 10 10 0 0 1 29.951172 50.501953 A 10 10 0 0 0 30 50 A 10 10 0 0 0 24.269531 40.996094 C 23.454492 40.995907 22.719388 40.996877 22 40.996094 z M 14.056641 50.5 A 5.9999998 5.9999998 0 0 0 14 51 A 5.9999998 5.9999998 0 0 0 20 57 A 5.9999998 5.9999998 0 0 0 26 51 A 5.9999998 5.9999998 0 0 0 25.980469 50.503906 A 5.9999998 5.9999998 0 0 1 20 56 A 5.9999998 5.9999998 0 0 1 14.056641 50.5 z"/>
 <circle style="opacity:0.2" cx="41" cy="18" r="13"/>
 <circle style="opacity:0.2" cx="21" cy="18" r="11"/>
 <circle style="fill:#dfdfdf" cx="41" cy="17" r="13"/>
 <circle style="fill:#dfdfdf" cx="21" cy="17" r="11"/>
 <circle style="opacity:0.1" cx="21" cy="18" r="7"/>
 <circle style="fill:#386ec1" cx="21" cy="17" r="7"/>
 <circle style="opacity:0.1" cx="41" cy="18" r="9"/>
 <circle style="fill:#386ec1" cx="41" cy="17" r="9"/>
 <path style="opacity:0.2;fill:#ffffff" d="M 41 4 A 13 13 0 0 0 29.816406 10.425781 A 11 11 0 0 0 21 6 A 11 11 0 0 0 10 17 A 11 11 0 0 0 10.044922 17.494141 A 11 11 0 0 1 21 7 A 11 11 0 0 1 29.816406 11.425781 A 13 13 0 0 1 41 5 A 13 13 0 0 1 53.978516 17.246094 A 13 13 0 0 0 54 17 A 13 13 0 0 0 41 4 z"/>
</svg>
